;START_OF_HEADER
;HEADER_VERSION:0.1
;FLAVOR:Griffin
;GENERATOR.NAME:Cura_SteamEngine
;GENERATOR.VERSION:main
;GENERATOR.BUILD_DATE:2022-07-19
;TARGET_MACHINE.NAME:Ultimaker 3
;EXTRUDER_TRAIN.0.INITIAL_TEMPERATURE:205
;EXTRUDER_TRAIN.0.MATERIAL.VOLUME_USED:383
;EXTRUDER_TRAIN.0.MATERIAL.GUID:506c9f0d-e3aa-4bd4-b2d2-23e2425b1aa9
;EXTRUDER_TRAIN.0.NOZZLE.DIAMETER:0.4
;EXTRUDER_TRAIN.0.NOZZLE.NAME:AA 0.4
;BUILD_PLATE.TYPE:glass
;BUILD_PLATE.INITIAL_TEMPERATURE:65
;PRINT.TIME:625
;PRINT.GROUPS:1
;PRINT.SIZE.MIN.X:116.333
;PRINT.SIZE.MIN.Y:97.318
;PRINT.SIZE.MIN.Z:0.2
;PRINT.SIZE.MAX.X:116.833
;PRINT.SIZE.MAX.Y:116.818
;PRINT.SIZE.MAX.Z:20
;END_OF_HEADER
;Generated with Cura_SteamEngine main
T0
M82 ;absolute extrusion mode

G92 E0
M109 S205
G280 S1
G0 Z20.001
G1 F1500 E-6.5
;LAYER_COUNT:100
;LAYER:0
M107
M204 S2000
M205 X20 Y20
;MESH:TestWand.stl
G0 F3750 X116.333 Y116.818 Z0.2
M104 S200
;TYPE:WALL-OUTER
G1 F1500 E0
G1 F972.6 X116.833 Y116.818 E0.00784
G1 X116.833 Y97.568 E0.30959
G1 X116.833 Y97.318 E0.31351
G1 X116.333 Y97.318 E0.32135
G1 X116.333 Y116.818 E0.62702
M204 S1214
G0 F3750 X116.533 Y116.818
;MESH:NONMESH
G0 F600 X116.533 Y116.818 Z0.4
G0 F3750 X116.343 Y116.808
;TIME_ELAPSED:7.150788
;LAYER:1
M140 S60
M106 S85
;TYPE:WALL-OUTER
;MESH:TestWand.stl
G1 F391.4 X116.823 Y116.808 E0.63424
G1 X116.823 Y97.568 E0.92377
G1 X116.823 Y97.328 E0.92739
G1 X116.343 Y97.328 E0.93461
G1 X116.343 Y116.808 E1.22775
M204 S429
G0 F9375 X116.543 Y116.808
;MESH:NONMESH
G0 F600 X116.543 Y116.808 Z0.6
G0 F9375 X116.343 Y116.808
;TIME_ELAPSED:13.394836
;LAYER:2
M106 S170
;TYPE:WALL-OUTER
;MESH:TestWand.stl
G1 F391.3 X116.823 Y116.808 E1.23498
G1 X116.823 Y97.568 E1.52451
G1 X116.823 Y97.328 E1.52812
G1 X116.343 Y97.328 E1.53534
G1 X116.343 Y116.808 E1.82849
G0 F15000 X116.543 Y116.808
;MESH:NONMESH
G0 F600 X116.543 Y116.808 Z0.8
G0 F15000 X116.343 Y116.808
;TIME_ELAPSED:19.639903
;LAYER:3
M106 S255
;TYPE:WALL-OUTER
;MESH:TestWand.stl
G1 F391.3 X116.823 Y116.808 E1.83571
G1 X116.823 Y97.568 E2.12524
G1 X116.823 Y97.328 E2.12885
G1 X116.343 Y97.328 E2.13608
G1 X116.343 Y116.808 E2.42922
G0 F15000 X116.543 Y116.808
;MESH:NONMESH
G0 F600 X116.543 Y116.808 Z1
G0 F15000 X116.343 Y116.808
;TIME_ELAPSED:25.884969
;LAYER:4
;TYPE:WALL-OUTER
;MESH:TestWand.stl
G1 F391.3 X116.823 Y116.808 E2.43644
G1 X116.823 Y97.568 E2.72598
G1 X116.823 Y97.328 E2.72959
G1 X116.343 Y97.328 E2.73681
G1 X116.343 Y116.808 E3.02995
G0 F15000 X116.543 Y116.808
;MESH:NONMESH
G0 F600 X116.543 Y116.808 Z1.2
G0 F15000 X116.343 Y116.808
;TIME_ELAPSED:32.130036
;LAYER:5
;TYPE:WALL-OUTER
;MESH:TestWand.stl
G1 F391.3 X116.823 Y116.808 E3.03718
G1 X116.823 Y116.568 E3.04079
G1 X116.823 Y97.328 E3.33032
G1 X116.343 Y97.328 E3.33754
G1 X116.343 Y116.808 E3.63069
G0 F15000 X116.543 Y116.808
;MESH:NONMESH
G0 F600 X116.543 Y116.808 Z1.4
G0 F15000 X116.343 Y116.808
;TIME_ELAPSED:38.375102
;LAYER:6
;TYPE:WALL-OUTER
;MESH:TestWand.stl
G1 F391.3 X116.823 Y116.808 E3.63791
G1 X116.823 Y97.568 E3.92744
G1 X116.823 Y97.328 E3.93106
G1 X116.343 Y97.328 E3.93828
G1 X116.343 Y116.808 E4.23142
G0 F15000 X116.543 Y116.808
;MESH:NONMESH
G0 F600 X116.543 Y116.808 Z1.6
G0 F15000 X116.343 Y116.808
;TIME_ELAPSED:44.620169
;LAYER:7
;TYPE:WALL-OUTER
;MESH:TestWand.stl
G1 F391.3 X116.823 Y116.808 E4.23865
G1 X116.823 Y97.568 E4.52818
G1 X116.823 Y97.328 E4.53179
G1 X116.343 Y97.328 E4.53901
G1 X116.343 Y116.808 E4.83216
G0 F15000 X116.543 Y116.808
;MESH:NONMESH
G0 F600 X116.543 Y116.808 Z1.8
G0 F15000 X116.343 Y116.808
;TIME_ELAPSED:50.865235
;LAYER:8
;TYPE:WALL-OUTER
;MESH:TestWand.stl
G1 F391.3 X116.823 Y116.808 E4.83938
G1 X116.823 Y97.568 E5.12891
G1 X116.823 Y97.328 E5.13252
G1 X116.343 Y97.328 E5.13975
G1 X116.343 Y116.808 E5.43289
G0 F15000 X116.543 Y116.808
;MESH:NONMESH
G0 F600 X116.543 Y116.808 Z2
G0 F15000 X116.343 Y116.808
;TIME_ELAPSED:57.110302
;LAYER:9
;TYPE:WALL-OUTER
;MESH:TestWand.stl
G1 F391.3 X116.823 Y116.808 E5.44011
G1 X116.823 Y97.568 E5.72965
G1 X116.823 Y97.328 E5.73326
G1 X116.343 Y97.328 E5.74048
G1 X116.343 Y116.808 E6.03362
G0 F15000 X116.543 Y116.808
;MESH:NONMESH
G0 F600 X116.543 Y116.808 Z2.2
G0 F15000 X116.343 Y116.808
;TIME_ELAPSED:63.355368
;LAYER:10
;TYPE:WALL-OUTER
;MESH:TestWand.stl
G1 F391.3 X116.823 Y116.808 E6.04085
G1 X116.823 Y97.568 E6.33038
G1 X116.823 Y97.328 E6.33399
G1 X116.343 Y97.328 E6.34121
G1 X116.343 Y116.808 E6.63436
G0 F15000 X116.543 Y116.808
;MESH:NONMESH
G0 F600 X116.543 Y116.808 Z2.4
G0 F15000 X116.343 Y116.808
;TIME_ELAPSED:69.600435
;LAYER:11
;TYPE:WALL-OUTER
;MESH:TestWand.stl
G1 F391.3 X116.823 Y116.808 E6.64158
G1 X116.823 Y116.568 E6.64519
G1 X116.823 Y97.328 E6.93472
G1 X116.343 Y97.328 E6.94195
G1 X116.343 Y116.808 E7.23509
G0 F15000 X116.543 Y116.808
;MESH:NONMESH
G0 F600 X116.543 Y116.808 Z2.6
G0 F15000 X116.343 Y116.808
;TIME_ELAPSED:75.845501
;LAYER:12
;TYPE:WALL-OUTER
;MESH:TestWand.stl
G1 F391.3 X116.823 Y116.808 E7.24232
G1 X116.823 Y97.568 E7.53185
G1 X116.823 Y97.328 E7.53546
G1 X116.343 Y97.328 E7.54268
G1 X116.343 Y116.808 E7.83583
G0 F15000 X116.543 Y116.808
;MESH:NONMESH
G0 F600 X116.543 Y116.808 Z2.8
G0 F15000 X116.343 Y116.808
;TIME_ELAPSED:82.090568
;LAYER:13
;TYPE:WALL-OUTER
;MESH:TestWand.stl
G1 F391.3 X116.823 Y116.808 E7.84305
G1 X116.823 Y97.568 E8.13258
G1 X116.823 Y97.328 E8.13619
G1 X116.343 Y97.328 E8.14342
G1 X116.343 Y116.808 E8.43656
G0 F15000 X116.543 Y116.808
;MESH:NONMESH
G0 F600 X116.543 Y116.808 Z3
G0 F15000 X116.343 Y116.808
;TIME_ELAPSED:88.335634
;LAYER:14
;TYPE:WALL-OUTER
;MESH:TestWand.stl
G1 F391.3 X116.823 Y116.808 E8.44378
G1 X116.823 Y97.568 E8.73332
G1 X116.823 Y97.328 E8.73693
G1 X116.343 Y97.328 E8.74415
G1 X116.343 Y116.808 E9.03729
G0 F15000 X116.543 Y116.808
;MESH:NONMESH
G0 F600 X116.543 Y116.808 Z3.2
G0 F15000 X116.343 Y116.808
;TIME_ELAPSED:94.580701
;LAYER:15
;TYPE:WALL-OUTER
;MESH:TestWand.stl
G1 F391.3 X116.823 Y116.808 E9.04452
G1 X116.823 Y97.568 E9.33405
G1 X116.823 Y97.328 E9.33766
G1 X116.343 Y97.328 E9.34488
G1 X116.343 Y116.808 E9.63803
G0 F15000 X116.543 Y116.808
;MESH:NONMESH
G0 F600 X116.543 Y116.808 Z3.4
G0 F15000 X116.343 Y116.808
;TIME_ELAPSED:100.825767
;LAYER:16
;TYPE:WALL-OUTER
;MESH:TestWand.stl
G1 F391.3 X116.823 Y116.808 E9.64525
G1 X116.823 Y97.328 E9.93839
G1 X116.343 Y97.328 E9.94562
G1 X116.343 Y116.808 E10.23876
G0 F15000 X116.543 Y116.808
;MESH:NONMESH
G0 F600 X116.543 Y116.808 Z3.6
G0 F15000 X116.343 Y116.808
;TIME_ELAPSED:107.070833
;LAYER:17
;TYPE:WALL-OUTER
;MESH:TestWand.stl
G1 F391.3 X116.823 Y116.808 E10.24598
G1 X116.823 Y97.568 E10.53552
G1 X116.823 Y97.328 E10.53913
G1 X116.343 Y97.328 E10.54635
G1 X116.343 Y116.808 E10.8395
G0 F15000 X116.543 Y116.808
;MESH:NONMESH
G0 F600 X116.543 Y116.808 Z3.8
G0 F15000 X116.343 Y116.808
;TIME_ELAPSED:113.315900
;LAYER:18
;TYPE:WALL-OUTER
;MESH:TestWand.stl
G1 F391.3 X116.823 Y116.808 E10.84672
G1 X116.823 Y97.328 E11.13986
G1 X116.583 Y97.328 E11.14347
G1 X116.343 Y97.328 E11.14709
G1 X116.343 Y116.808 E11.44023
G0 F15000 X116.543 Y116.808
;MESH:NONMESH
G0 F600 X116.543 Y116.808 Z4
G0 F15000 X116.343 Y116.808
;TIME_ELAPSED:119.560966
;LAYER:19
;TYPE:WALL-OUTER
;MESH:TestWand.stl
G1 F391.3 X116.823 Y116.808 E11.44745
G1 X116.823 Y97.328 E11.7406
G1 X116.583 Y97.328 E11.74421
G1 X116.343 Y97.328 E11.74782
G1 X116.343 Y116.808 E12.04096
G0 F15000 X116.543 Y116.808
;MESH:NONMESH
G0 F600 X116.543 Y116.808 Z4.2
G0 F15000 X116.343 Y116.808
;TIME_ELAPSED:125.806033
;LAYER:20
;TYPE:WALL-OUTER
;MESH:TestWand.stl
G1 F391.3 X116.823 Y116.808 E12.04819
G1 X116.823 Y97.568 E12.33772
G1 X116.823 Y97.328 E12.34133
G1 X116.343 Y97.328 E12.34855
G1 X116.343 Y116.808 E12.6417
G0 F15000 X116.543 Y116.808
;MESH:NONMESH
G0 F600 X116.543 Y116.808 Z4.4
G0 F15000 X116.343 Y116.808
;TIME_ELAPSED:132.051099
;LAYER:21
;TYPE:WALL-OUTER
;MESH:TestWand.stl
G1 F391.3 X116.823 Y116.808 E12.64892
G1 X116.823 Y97.568 E12.93845
G1 X116.823 Y97.328 E12.94206
G1 X116.343 Y97.328 E12.94929
G1 X116.343 Y116.808 E13.24243
G0 F15000 X116.543 Y116.808
;MESH:NONMESH
G0 F600 X116.543 Y116.808 Z4.6
G0 F15000 X116.343 Y116.808
;TIME_ELAPSED:138.296166
;LAYER:22
;TYPE:WALL-OUTER
;MESH:TestWand.stl
G1 F391.3 X116.823 Y116.808 E13.24965
G1 X116.823 Y97.568 E13.53919
G1 X116.823 Y97.328 E13.5428
G1 X116.343 Y97.328 E13.55002
G1 X116.343 Y116.808 E13.84317
G0 F15000 X116.543 Y116.808
;MESH:NONMESH
G0 F600 X116.543 Y116.808 Z4.8
G0 F15000 X116.343 Y116.808
;TIME_ELAPSED:144.541232
;LAYER:23
;TYPE:WALL-OUTER
;MESH:TestWand.stl
G1 F391.3 X116.823 Y116.808 E13.85039
G1 X116.823 Y97.568 E14.13992
G1 X116.823 Y97.328 E14.14353
G1 X116.343 Y97.328 E14.15076
G1 X116.343 Y116.808 E14.4439
G0 F15000 X116.543 Y116.808
;MESH:NONMESH
G0 F600 X116.543 Y116.808 Z5
G0 F15000 X116.343 Y116.808
;TIME_ELAPSED:150.786299
;LAYER:24
;TYPE:WALL-OUTER
;MESH:TestWand.stl
G1 F391.3 X116.823 Y116.808 E14.45112
G1 X116.823 Y97.568 E14.74065
G1 X116.823 Y97.328 E14.74427
G1 X116.343 Y97.328 E14.75149
G1 X116.343 Y116.808 E15.04463
G0 F15000 X116.543 Y116.808
;MESH:NONMESH
G0 F600 X116.543 Y116.808 Z5.2
G0 F15000 X116.343 Y116.808
;TIME_ELAPSED:157.031365
;LAYER:25
;TYPE:WALL-OUTER
;MESH:TestWand.stl
G1 F391.3 X116.823 Y116.808 E15.05186
G1 X116.823 Y97.568 E15.34139
G1 X116.823 Y97.328 E15.345
G1 X116.343 Y97.328 E15.35222
G1 X116.343 Y116.808 E15.64537
G0 F15000 X116.543 Y116.808
;MESH:NONMESH
G0 F600 X116.543 Y116.808 Z5.4
G0 F15000 X116.343 Y116.808
;TIME_ELAPSED:163.276432
;LAYER:26
;TYPE:WALL-OUTER
;MESH:TestWand.stl
G1 F391.3 X116.823 Y116.808 E15.65259
G1 X116.823 Y97.568 E15.94212
G1 X116.823 Y97.328 E15.94573
G1 X116.343 Y97.328 E15.95296
G1 X116.343 Y116.808 E16.2461
G0 F15000 X116.543 Y116.808
;MESH:NONMESH
G0 F600 X116.543 Y116.808 Z5.6
G0 F15000 X116.343 Y116.808
;TIME_ELAPSED:169.521498
;LAYER:27
;TYPE:WALL-OUTER
;MESH:TestWand.stl
G1 F391.3 X116.823 Y116.808 E16.25332
G1 X116.823 Y97.568 E16.54286
G1 X116.823 Y97.328 E16.54647
G1 X116.343 Y97.328 E16.55369
G1 X116.343 Y116.808 E16.84683
G0 F15000 X116.543 Y116.808
;MESH:NONMESH
G0 F600 X116.543 Y116.808 Z5.8
G0 F15000 X116.343 Y116.808
;TIME_ELAPSED:175.766565
;LAYER:28
;TYPE:WALL-OUTER
;MESH:TestWand.stl
G1 F391.3 X116.823 Y116.808 E16.85406
G1 X116.823 Y97.568 E17.14359
G1 X116.823 Y97.328 E17.1472
G1 X116.343 Y97.328 E17.15442
G1 X116.343 Y116.808 E17.44757
G0 F15000 X116.543 Y116.808
;MESH:NONMESH
G0 F600 X116.543 Y116.808 Z6
G0 F15000 X116.343 Y116.808
;TIME_ELAPSED:182.011631
;LAYER:29
;TYPE:WALL-OUTER
;MESH:TestWand.stl
G1 F391.3 X116.823 Y116.808 E17.45479
G1 X116.823 Y97.568 E17.74432
G1 X116.823 Y97.328 E17.74794
G1 X116.343 Y97.328 E17.75516
G1 X116.343 Y116.808 E18.0483
G0 F15000 X116.543 Y116.808
;MESH:NONMESH
G0 F600 X116.543 Y116.808 Z6.2
G0 F15000 X116.343 Y116.808
;TIME_ELAPSED:188.256697
;LAYER:30
;TYPE:WALL-OUTER
;MESH:TestWand.stl
G1 F391.3 X116.823 Y116.808 E18.05553
G1 X116.823 Y97.328 E18.34867
G1 X116.343 Y97.328 E18.35589
G1 X116.343 Y116.808 E18.64904
G0 F15000 X116.543 Y116.808
;MESH:NONMESH
G0 F600 X116.543 Y116.808 Z6.4
G0 F15000 X116.343 Y116.808
;TIME_ELAPSED:194.501764
;LAYER:31
;TYPE:WALL-OUTER
;MESH:TestWand.stl
G1 F391.3 X116.823 Y116.808 E18.65626
G1 X116.823 Y97.568 E18.94579
G1 X116.823 Y97.328 E18.9494
G1 X116.343 Y97.328 E18.95663
G1 X116.343 Y116.808 E19.24977
G0 F15000 X116.543 Y116.808
;MESH:NONMESH
G0 F600 X116.543 Y116.808 Z6.6
G0 F15000 X116.343 Y116.808
;TIME_ELAPSED:200.746830
;LAYER:32
;TYPE:WALL-OUTER
;MESH:TestWand.stl
G1 F391.3 X116.823 Y116.808 E19.25699
G1 X116.823 Y97.568 E19.54653
G1 X116.823 Y97.328 E19.55014
G1 X116.343 Y97.328 E19.55736
G1 X116.343 Y116.808 E19.8505
G0 F15000 X116.543 Y116.808
;MESH:NONMESH
G0 F600 X116.543 Y116.808 Z6.8
G0 F15000 X116.343 Y116.808
;TIME_ELAPSED:206.991897
;LAYER:33
;TYPE:WALL-OUTER
;MESH:TestWand.stl
G1 F391.3 X116.823 Y116.808 E19.85773
G1 X116.823 Y97.568 E20.14726
G1 X116.823 Y97.328 E20.15087
G1 X116.343 Y97.328 E20.15809
G1 X116.343 Y116.808 E20.45124
G0 F15000 X116.543 Y116.808
;MESH:NONMESH
G0 F600 X116.543 Y116.808 Z7
G0 F15000 X116.343 Y116.808
;TIME_ELAPSED:213.236963
;LAYER:34
;TYPE:WALL-OUTER
;MESH:TestWand.stl
G1 F391.3 X116.823 Y116.808 E20.45846
G1 X116.823 Y97.328 E20.75161
G1 X116.343 Y97.328 E20.75883
G1 X116.343 Y116.808 E21.05197
G0 F15000 X116.543 Y116.808
;MESH:NONMESH
G0 F600 X116.543 Y116.808 Z7.2
G0 F15000 X116.343 Y116.808
;TIME_ELAPSED:219.482030
;LAYER:35
;TYPE:WALL-OUTER
;MESH:TestWand.stl
G1 F391.3 X116.823 Y116.808 E21.0592
G1 X116.823 Y97.568 E21.34873
G1 X116.823 Y97.328 E21.35234
G1 X116.343 Y97.328 E21.35956
G1 X116.343 Y116.808 E21.65271
G0 F15000 X116.543 Y116.808
;MESH:NONMESH
G0 F600 X116.543 Y116.808 Z7.4
G0 F15000 X116.343 Y116.808
;TIME_ELAPSED:225.727096
;LAYER:36
;TYPE:WALL-OUTER
;MESH:TestWand.stl
G1 F391.3 X116.823 Y116.808 E21.65993
G1 X116.823 Y97.568 E21.94946
G1 X116.823 Y97.328 E21.95307
G1 X116.343 Y97.328 E21.9603
G1 X116.343 Y116.808 E22.25344
G0 F15000 X116.543 Y116.808
;MESH:NONMESH
G0 F600 X116.543 Y116.808 Z7.6
G0 F15000 X116.343 Y116.808
;TIME_ELAPSED:231.972163
;LAYER:37
;TYPE:WALL-OUTER
;MESH:TestWand.stl
G1 F391.3 X116.823 Y116.808 E22.26066
G1 X116.823 Y116.568 E22.26428
G1 X116.823 Y97.328 E22.55381
G1 X116.343 Y97.328 E22.56103
G1 X116.343 Y116.808 E22.85417
G0 F15000 X116.543 Y116.808
;MESH:NONMESH
G0 F600 X116.543 Y116.808 Z7.8
G0 F15000 X116.343 Y116.808
;TIME_ELAPSED:238.217229
;LAYER:38
;TYPE:WALL-OUTER
;MESH:TestWand.stl
G1 F391.3 X116.823 Y116.808 E22.8614
G1 X116.823 Y97.568 E23.15093
G1 X116.823 Y97.328 E23.15454
G1 X116.343 Y97.328 E23.16176
G1 X116.343 Y116.808 E23.45491
G0 F15000 X116.543 Y116.808
;MESH:NONMESH
G0 F600 X116.543 Y116.808 Z8
G0 F15000 X116.343 Y116.808
;TIME_ELAPSED:244.462296
;LAYER:39
;TYPE:WALL-OUTER
;MESH:TestWand.stl
G1 F391.3 X116.823 Y116.808 E23.46213
G1 X116.823 Y97.568 E23.75166
G1 X116.823 Y97.328 E23.75527
G1 X116.343 Y97.328 E23.7625
G1 X116.343 Y116.808 E24.05564
G0 F15000 X116.543 Y116.808
;MESH:NONMESH
G0 F600 X116.543 Y116.808 Z8.2
G0 F15000 X116.343 Y116.808
;TIME_ELAPSED:250.707362
;LAYER:40
;TYPE:WALL-OUTER
;MESH:TestWand.stl
G1 F391.3 X116.823 Y116.808 E24.06287
G1 X116.823 Y97.568 E24.3524
G1 X116.823 Y97.328 E24.35601
G1 X116.343 Y97.328 E24.36323
G1 X116.343 Y116.808 E24.65638
G0 F15000 X116.543 Y116.808
;MESH:NONMESH
G0 F600 X116.543 Y116.808 Z8.4
G0 F15000 X116.343 Y116.808
;TIME_ELAPSED:256.952429
;LAYER:41
;TYPE:WALL-OUTER
;MESH:TestWand.stl
G1 F391.3 X116.823 Y116.808 E24.6636
G1 X116.823 Y116.568 E24.66721
G1 X116.823 Y97.328 E24.95674
G1 X116.343 Y97.328 E24.96397
G1 X116.343 Y116.808 E25.25711
G0 F15000 X116.543 Y116.808
;MESH:NONMESH
G0 F600 X116.543 Y116.808 Z8.6
G0 F15000 X116.343 Y116.808
;TIME_ELAPSED:263.197495
;LAYER:42
;TYPE:WALL-OUTER
;MESH:TestWand.stl
G1 F391.3 X116.823 Y116.808 E25.26433
G1 X116.823 Y97.568 E25.55387
G1 X116.823 Y97.328 E25.55748
G1 X116.343 Y97.328 E25.5647
G1 X116.343 Y116.808 E25.85784
G0 F15000 X116.543 Y116.808
;MESH:NONMESH
G0 F600 X116.543 Y116.808 Z8.8
G0 F15000 X116.343 Y116.808
;TIME_ELAPSED:269.442562
;LAYER:43
;TYPE:WALL-OUTER
;MESH:TestWand.stl
G1 F391.3 X116.823 Y116.808 E25.86507
G1 X116.823 Y97.568 E26.1546
G1 X116.823 Y97.328 E26.15821
G1 X116.343 Y97.328 E26.16543
G1 X116.343 Y116.808 E26.45858
G0 F15000 X116.543 Y116.808
;MESH:NONMESH
G0 F600 X116.543 Y116.808 Z9
G0 F15000 X116.343 Y116.808
;TIME_ELAPSED:275.687628
;LAYER:44
;TYPE:WALL-OUTER
;MESH:TestWand.stl
G1 F391.3 X116.823 Y116.808 E26.4658
G1 X116.823 Y97.568 E26.75533
