;START_OF_HEADER
;HEADER_VERSION:0.1
;FLAVOR:Griffin
;GENERATOR.NAME:Cura_SteamEngine
;GENERATOR.VERSION:main
;GENERATOR.BUILD_DATE:2022-07-19
;TARGET_MACHINE.NAME:Ultimaker 3
;EXTRUDER_TRAIN.0.INITIAL_TEMPERATURE:205
;EXTRUDER_TRAIN.0.MATERIAL.VOLUME_USED:377
;EXTRUDER_TRAIN.0.MATERIAL.GUID:506c9f0d-e3aa-4bd4-b2d2-23e2425b1aa9
;EXTRUDER_TRAIN.0.NOZZLE.DIAMETER:0.4
;EXTRUDER_TRAIN.0.NOZZLE.NAME:AA 0.4
;BUILD_PLATE.TYPE:glass
;BUILD_PLATE.INITIAL_TEMPERATURE:65
;PRINT.TIME:410
;PRINT.GROUPS:1
;PRINT.SIZE.MIN.X:116.333
;PRINT.SIZE.MIN.Y:97.318
;PRINT.SIZE.MIN.Z:0.3
;PRINT.SIZE.MAX.X:116.833
;PRINT.SIZE.MAX.Y:116.818
;PRINT.SIZE.MAX.Z:20.1
;END_OF_HEADER
;Generated with Cura_SteamEngine main
T0
M82 ;absolute extrusion mode

G92 E0
M109 S205
G280 S1
G0 Z20.001
G1 F1500 E-6.5
;LAYER_COUNT:67
;LAYER:0
M107
M204 S2000
M205 X20 Y20
;MESH:TestWand.stl
G0 F3750 X116.333 Y116.818 Z0.3
M104 S200
;TYPE:WALL-OUTER
G1 F1500 E0
G1 F972.6 X116.833 Y116.818 E0.01176
G1 X116.833 Y97.318 E0.47026
G1 X116.333 Y97.318 E0.48202
G1 X116.333 Y116.818 E0.94053
M204 S1214
G0 F3750 X116.533 Y116.818
;MESH:NONMESH
G0 F600 X116.533 Y116.818 Z0.6
G0 F3750 X116.348 Y116.803
;TIME_ELAPSED:7.169096
;LAYER:1
M140 S60
M106 S127.5
;TYPE:WALL-OUTER
;MESH:TestWand.stl
G1 F400.4 X116.818 Y116.803 E0.95092
G1 X116.818 Y97.568 E1.37606
G1 X116.818 Y97.333 E1.38125
G1 X116.348 Y97.333 E1.39164
G1 X116.348 Y116.803 E1.82197
M204 S429
G0 F9375 X116.548 Y116.803
;MESH:NONMESH
G0 F600 X116.548 Y116.803 Z0.9
G0 F9375 X116.348 Y116.803
;TIME_ELAPSED:13.285315
;LAYER:2
M106 S255
;TYPE:WALL-OUTER
;MESH:TestWand.stl
G1 F400.3 X116.818 Y116.803 E1.83236
G1 X116.818 Y97.333 E2.26269
G1 X116.348 Y97.333 E2.27308
G1 X116.348 Y116.568 E2.69822
G1 X116.348 Y116.803 E2.70342
G0 F15000 X116.548 Y116.803
;MESH:NONMESH
G0 F600 X116.548 Y116.803 Z1.2
G0 F15000 X116.348 Y116.803
;TIME_ELAPSED:19.400593
;LAYER:3
;TYPE:WALL-OUTER
;MESH:TestWand.stl
G1 F400.3 X116.818 Y116.803 E2.7138
G1 X116.818 Y97.333 E3.14414
G1 X116.348 Y97.333 E3.15453
G1 X116.348 Y116.803 E3.58486
G0 F15000 X116.548 Y116.803
;MESH:NONMESH
G0 F600 X116.548 Y116.803 Z1.5
G0 F15000 X116.348 Y116.803
;TIME_ELAPSED:25.515870
;LAYER:4
;TYPE:WALL-OUTER
;MESH:TestWand.stl
G1 F400.3 X116.818 Y116.803 E3.59525
G1 X116.818 Y97.568 E4.02039
G1 X116.818 Y97.333 E4.02558
G1 X116.348 Y97.333 E4.03597
G1 X116.348 Y116.803 E4.4663
G0 F15000 X116.548 Y116.803
;MESH:NONMESH
G0 F600 X116.548 Y116.803 Z1.8
G0 F15000 X116.348 Y116.803
;TIME_ELAPSED:31.631148
;LAYER:5
;TYPE:WALL-OUTER
;MESH:TestWand.stl
G1 F400.3 X116.818 Y116.803 E4.47669
G1 X116.818 Y97.568 E4.90183
G1 X116.818 Y97.333 E4.90703
G1 X116.348 Y97.333 E4.91741
G1 X116.348 Y116.803 E5.34775
G0 F15000 X116.548 Y116.803
;MESH:NONMESH
G0 F600 X116.548 Y116.803 Z2.1
G0 F15000 X116.348 Y116.803
;TIME_ELAPSED:37.746426
;LAYER:6
;TYPE:WALL-OUTER
;MESH:TestWand.stl
G1 F400.3 X116.818 Y116.803 E5.35814
G1 X116.818 Y97.568 E5.78328
G1 X116.818 Y97.333 E5.78847
G1 X116.348 Y97.333 E5.79886
G1 X116.348 Y116.803 E6.22919
G0 F15000 X116.548 Y116.803
;MESH:NONMESH
G0 F600 X116.548 Y116.803 Z2.4
G0 F15000 X116.348 Y116.803
;TIME_ELAPSED:43.861704
;LAYER:7
;TYPE:WALL-OUTER
;MESH:TestWand.stl
G1 F400.3 X116.818 Y116.803 E6.23958
G1 X116.818 Y97.568 E6.66472
G1 X116.818 Y97.333 E6.66991
G1 X116.348 Y97.333 E6.6803
G1 X116.348 Y116.803 E7.11063
G0 F15000 X116.548 Y116.803
;MESH:NONMESH
G0 F600 X116.548 Y116.803 Z2.7
G0 F15000 X116.348 Y116.803
;TIME_ELAPSED:49.976982
;LAYER:8
;TYPE:WALL-OUTER
;MESH:TestWand.stl
G1 F400.3 X116.818 Y116.803 E7.12102
G1 X116.818 Y97.568 E7.54616
G1 X116.818 Y97.333 E7.55136
G1 X116.348 Y97.333 E7.56174
G1 X116.348 Y116.803 E7.99208
G0 F15000 X116.548 Y116.803
;MESH:NONMESH
G0 F600 X116.548 Y116.803 Z3
G0 F15000 X116.348 Y116.803
;TIME_ELAPSED:56.092259
;LAYER:9
;TYPE:WALL-OUTER
;MESH:TestWand.stl
G1 F400.3 X116.818 Y116.803 E8.00247
G1 X116.818 Y97.568 E8.42761
G1 X116.818 Y97.333 E8.4328
G1 X116.348 Y97.333 E8.44319
G1 X116.348 Y116.803 E8.87352
G0 F15000 X116.548 Y116.803
;MESH:NONMESH
G0 F600 X116.548 Y116.803 Z3.3
G0 F15000 X116.348 Y116.803
;TIME_ELAPSED:62.207537
;LAYER:10
;TYPE:WALL-OUTER
;MESH:TestWand.stl
G1 F400.3 X116.818 Y116.803 E8.88391
G1 X116.818 Y97.568 E9.30905
G1 X116.818 Y97.333 E9.31424
G1 X116.348 Y97.333 E9.32463
G1 X116.348 Y116.803 E9.75497
G0 F15000 X116.548 Y116.803
;MESH:NONMESH
G0 F600 X116.548 Y116.803 Z3.6
G0 F15000 X116.348 Y116.803
;TIME_ELAPSED:68.322815
;LAYER:11
;TYPE:WALL-OUTER
;MESH:TestWand.stl
G1 F400.3 X116.818 Y116.803 E9.76535
G1 X116.818 Y97.568 E10.19049
G1 X116.818 Y97.333 E10.19569
G1 X116.348 Y97.333 E10.20608
G1 X116.348 Y116.803 E10.63641
G0 F15000 X116.548 Y116.803
;MESH:NONMESH
G0 F600 X116.548 Y116.803 Z3.9
G0 F15000 X116.348 Y116.803
;TIME_ELAPSED:74.438093
;LAYER:12
;TYPE:WALL-OUTER
;MESH:TestWand.stl
G1 F400.3 X116.818 Y116.803 E10.6468
G1 X116.818 Y97.568 E11.07194
G1 X116.818 Y97.333 E11.07713
G1 X116.348 Y97.333 E11.08752
G1 X116.348 Y116.803 E11.51785
G0 F15000 X116.548 Y116.803
;MESH:NONMESH
G0 F600 X116.548 Y116.803 Z4.2
G0 F15000 X116.348 Y116.803
;TIME_ELAPSED:80.553371
;LAYER:13
;TYPE:WALL-OUTER
;MESH:TestWand.stl
G1 F400.3 X116.818 Y116.803 E11.52824
G1 X116.818 Y97.568 E11.95338
G1 X116.818 Y97.333 E11.95858
G1 X116.348 Y97.333 E11.96896
G1 X116.348 Y116.803 E12.3993
G0 F15000 X116.548 Y116.803
;MESH:NONMESH
G0 F600 X116.548 Y116.803 Z4.5
G0 F15000 X116.348 Y116.803
;TIME_ELAPSED:86.668648
;LAYER:14
;TYPE:WALL-OUTER
;MESH:TestWand.stl
G1 F400.3 X116.818 Y116.803 E12.40969
G1 X116.818 Y97.333 E12.84002
G1 X116.348 Y97.333 E12.85041
G1 X116.348 Y116.803 E13.28074
G0 F15000 X116.548 Y116.803
;MESH:NONMESH
G0 F600 X116.548 Y116.803 Z4.8
G0 F15000 X116.348 Y116.803
;TIME_ELAPSED:92.783926
;LAYER:15
;TYPE:WALL-OUTER
;MESH:TestWand.stl
G1 F400.3 X116.818 Y116.803 E13.29113
G1 X116.818 Y97.568 E13.71627
G1 X116.818 Y97.333 E13.72146
G1 X116.348 Y97.333 E13.73185
G1 X116.348 Y116.803 E14.16219
G0 F15000 X116.548 Y116.803
;MESH:NONMESH
G0 F600 X116.548 Y116.803 Z5.1
G0 F15000 X116.348 Y116.803
;TIME_ELAPSED:98.899204
;LAYER:16
;TYPE:WALL-OUTER
;MESH:TestWand.stl
G1 F400.3 X116.818 Y116.803 E14.17257
G1 X116.818 Y97.568 E14.59771
G1 X116.818 Y97.333 E14.60291
G1 X116.348 Y97.333 E14.6133
G1 X116.348 Y116.803 E15.04363
G0 F15000 X116.548 Y116.803
;MESH:NONMESH
G0 F600 X116.548 Y116.803 Z5.4
G0 F15000 X116.348 Y116.803
;TIME_ELAPSED:105.014482
;LAYER:17
;TYPE:WALL-OUTER
;MESH:TestWand.stl
G1 F400.3 X116.818 Y116.803 E15.05402
G1 X116.818 Y97.568 E15.47916
G1 X116.818 Y97.333 E15.48435
G1 X116.348 Y97.333 E15.49474
G1 X116.348 Y116.803 E15.92507
G0 F15000 X116.548 Y116.803
;MESH:NONMESH
G0 F600 X116.548 Y116.803 Z5.7
G0 F15000 X116.348 Y116.803
;TIME_ELAPSED:111.129759
;LAYER:18
;TYPE:WALL-OUTER
;MESH:TestWand.stl
G1 F400.3 X116.818 Y116.803 E15.93546
G1 X116.818 Y97.568 E16.3606
G1 X116.818 Y97.333 E16.3658
G1 X116.348 Y97.333 E16.37618
G1 X116.348 Y116.803 E16.80652
G0 F15000 X116.548 Y116.803
;MESH:NONMESH
G0 F600 X116.548 Y116.803 Z6
G0 F15000 X116.348 Y116.803
;TIME_ELAPSED:117.245037
;LAYER:19
;TYPE:WALL-OUTER
;MESH:TestWand.stl
G1 F400.3 X116.818 Y116.803 E16.81691
G1 X116.818 Y97.333 E17.24724
G1 X116.348 Y97.333 E17.25763
G1 X116.348 Y116.803 E17.68796
G0 F15000 X116.548 Y116.803
;MESH:NONMESH
G0 F600 X116.548 Y116.803 Z6.3
G0 F15000 X116.348 Y116.803
;TIME_ELAPSED:123.360315
;LAYER:20
;TYPE:WALL-OUTER
;MESH:TestWand.stl
G1 F400.3 X116.818 Y116.803 E17.69835
G1 X116.818 Y97.568 E18.12349
G1 X116.818 Y97.333 E18.12868
G1 X116.348 Y97.333 E18.13907
G1 X116.348 Y116.803 E18.56941
G0 F15000 X116.548 Y116.803
;MESH:NONMESH
G0 F600 X116.548 Y116.803 Z6.6
G0 F15000 X116.348 Y116.803
;TIME_ELAPSED:129.475592
;LAYER:21
;TYPE:WALL-OUTER
;MESH:TestWand.stl
G1 F400.3 X116.818 Y116.803 E18.57979
G1 X116.818 Y97.568 E19.00493
G1 X116.818 Y97.333 E19.01013
G1 X116.348 Y97.333 E19.02052
G1 X116.348 Y116.803 E19.45085
G0 F15000 X116.548 Y116.803
;MESH:NONMESH
G0 F600 X116.548 Y116.803 Z6.9
G0 F15000 X116.348 Y116.803
;TIME_ELAPSED:135.590870
;LAYER:22
;TYPE:WALL-OUTER
;MESH:TestWand.stl
G1 F400.3 X116.818 Y116.803 E19.46124
G1 X116.818 Y97.568 E19.88638
G1 X116.818 Y97.333 E19.89157
G1 X116.348 Y97.333 E19.90196
G1 X116.348 Y116.803 E20.33229
G0 F15000 X116.548 Y116.803
;MESH:NONMESH
G0 F600 X116.548 Y116.803 Z7.2
G0 F15000 X116.348 Y116.803
;TIME_ELAPSED:141.706148
;LAYER:23
;TYPE:WALL-OUTER
;MESH:TestWand.stl
G1 F400.3 X116.818 Y116.803 E20.34268
G1 X116.818 Y97.333 E20.77301
G1 X116.348 Y97.333 E20.7834
G1 X116.348 Y116.803 E21.21374
G0 F15000 X116.548 Y116.803
;MESH:NONMESH
G0 F600 X116.548 Y116.803 Z7.5
G0 F15000 X116.348 Y116.803
;TIME_ELAPSED:147.821426
;LAYER:24
;TYPE:WALL-OUTER
;MESH:TestWand.stl
G1 F400.3 X116.818 Y116.803 E21.22412
G1 X116.818 Y97.568 E21.64926
G1 X116.818 Y97.333 E21.65446
G1 X116.348 Y97.333 E21.66485
G1 X116.348 Y116.803 E22.09518
G0 F15000 X116.548 Y116.803
;MESH:NONMESH
G0 F600 X116.548 Y116.803 Z7.8
G0 F15000 X116.348 Y116.803
;TIME_ELAPSED:153.936703
;LAYER:25
;TYPE:WALL-OUTER
;MESH:TestWand.stl
G1 F400.3 X116.818 Y116.803 E22.10557
G1 X116.818 Y97.568 E22.53071
G1 X116.818 Y97.333 E22.5359
G1 X116.348 Y97.333 E22.54629
G1 X116.348 Y116.803 E22.97662
G0 F15000 X116.548 Y116.803
;MESH:NONMESH
G0 F600 X116.548 Y116.803 Z8.1
G0 F15000 X116.348 Y116.803
;TIME_ELAPSED:160.051981
;LAYER:26
;TYPE:WALL-OUTER
;MESH:TestWand.stl
G1 F400.3 X116.818 Y116.803 E22.98701
G1 X116.818 Y97.333 E23.41735
G1 X116.348 Y97.333 E23.42773
G1 X116.348 Y116.803 E23.85807
G0 F15000 X116.548 Y116.803
;MESH:NONMESH
G0 F600 X116.548 Y116.803 Z8.4
G0 F15000 X116.348 Y116.803
;TIME_ELAPSED:166.167259
;LAYER:27
;TYPE:WALL-OUTER
;MESH:TestWand.stl
G1 F400.3 X116.818 Y116.803 E23.86846
G1 X116.818 Y97.568 E24.2936
G1 X116.818 Y97.333 E24.29879
G1 X116.348 Y97.333 E24.30918
G1 X116.348 Y116.803 E24.73951
G0 F15000 X116.548 Y116.803
;MESH:NONMESH
G0 F600 X116.548 Y116.803 Z8.7
G0 F15000 X116.348 Y116.803
;TIME_ELAPSED:172.282537
;LAYER:28
;TYPE:WALL-OUTER
;MESH:TestWand.stl
G1 F400.3 X116.818 Y116.803 E24.7499
G1 X116.818 Y97.568 E25.17504
G1 X116.818 Y97.333 E25.18023
G1 X116.348 Y97.333 E25.19062
G1 X116.348 Y116.803 E25.62096
G0 F15000 X116.548 Y116.803
;MESH:NONMESH
G0 F600 X116.548 Y116.803 Z9
G0 F15000 X116.348 Y116.803
;TIME_ELAPSED:178.397814
;LAYER:29
;TYPE:WALL-OUTER
;MESH:TestWand.stl
G1 F400.3 X116.818 Y116.803 E25.63134
G1 X116.818 Y97.333 E26.06168
G1 X116.348 Y97.333 E26.07207
G1 X116.348 Y116.803 E26.5024
G0 F15000 X116.548 Y116.803
;MESH:NONMESH
G0 F600 X116.548 Y116.803 Z9.3
G0 F15000 X116.348 Y116.803
;TIME_ELAPSED:184.513092
;LAYER:30
;TYPE:WALL-OUTER
;MESH:TestWand.stl
G1 F400.3 X116.818 Y116.803 E26.51279
G1 X116.818 Y97.568 E26.93793
G1 X116.818 Y97.333 E26.94312
G1 X116.348 Y97.333 E26.95351
G1 X116.348 Y116.803 E27.38384
G0 F15000 X116.548 Y116.803
;MESH:NONMESH
G0 F600 X116.548 Y116.803 Z9.6
G0 F15000 X116.348 Y116.803
;TIME_ELAPSED:190.628370
;LAYER:31
;TYPE:WALL-OUTER
;MESH:TestWand.stl
G1 F400.3 X116.818 Y116.803 E27.39423
G1 X116.818 Y116.568 E27.39943
G1 X116.818 Y97.333 E27.82457
G1 X116.348 Y97.333 E27.83495
G1 X116.348 Y116.803 E28.26529
G0 F15000 X116.548 Y116.803
;MESH:NONMESH
G0 F600 X116.548 Y116.803 Z9.9
G0 F15000 X116.348 Y116.803
;TIME_ELAPSED:196.743648
;LAYER:32
;TYPE:WALL-OUTER
;MESH:TestWand.stl
G1 F400.3 X116.818 Y116.803 E28.27568
G1 X116.818 Y97.568 E28.70082
G1 X116.818 Y97.333 E28.70601
G1 X116.348 Y97.333 E28.7164
G1 X116.348 Y116.803 E29.14673
G0 F15000 X116.548 Y116.803
;MESH:NONMESH
G0 F600 X116.548 Y116.803 Z10.2
G0 F15000 X116.348 Y116.803
;TIME_ELAPSED:202.858925
;LAYER:33
;TYPE:WALL-OUTER
;MESH:TestWand.stl
G1 F400.3 X116.818 Y116.803 E29.15712
G1 X116.818 Y97.568 E29.58226
G1 X116.818 Y97.333 E29.58745
G1 X116.348 Y97.333 E29.59784
G1 X116.348 Y116.803 E30.02818
G0 F15000 X116.548 Y116.803
;MESH:NONMESH
G0 F600 X116.548 Y116.803 Z10.5
G0 F15000 X116.348 Y116.803
;TIME_ELAPSED:208.974203
;LAYER:34
;TYPE:WALL-OUTER
;MESH:TestWand.stl
G1 F400.3 X116.818 Y116.803 E30.03856
G1 X116.818 Y97.333 E30.4689
G1 X116.348 Y97.333 E30.47929
G1 X116.348 Y116.803 E30.90962
G0 F15000 X116.548 Y116.803
;MESH:NONMESH
G0 F600 X116.548 Y116.803 Z10.8
G0 F15000 X116.348 Y116.803
;TIME_ELAPSED:215.089481
;LAYER:35
;TYPE:WALL-OUTER
;MESH:TestWand.stl
G1 F400.3 X116.818 Y116.803 E30.92001
G1 X116.818 Y97.568 E31.34515
G1 X116.818 Y97.333 E31.35034
G1 X116.348 Y97.333 E31.36073
G1 X116.348 Y116.803 E31.79106
G0 F15000 X116.548 Y116.803
;MESH:NONMESH
G0 F600 X116.548 Y116.803 Z11.1
G0 F15000 X116.348 Y116.803
;TIME_ELAPSED:221.204759
;LAYER:36
;TYPE:WALL-OUTER
;MESH:TestWand.stl
G1 F400.3 X116.818 Y116.803 E31.80145
G1 X116.818 Y116.568 E31.80665
G1 X116.818 Y97.333 E32.23179
G1 X116.348 Y97.333 E32.24217
G1 X116.348 Y116.803 E32.67251
G0 F15000 X116.548 Y116.803
;MESH:NONMESH
G0 F600 X116.548 Y116.803 Z11.4
G0 F15000 X116.348 Y116.803
;TIME_ELAPSED:227.320036
;LAYER:37
;TYPE:WALL-OUTER
;MESH:TestWand.stl
G1 F400.3 X116.818 Y116.803 E32.6829
G1 X116.818 Y97.568 E33.10803
G1 X116.818 Y97.333 E33.11323
G1 X116.348 Y97.333 E33.12362
G1 X116.348 Y116.803 E33.55395
G0 F15000 X116.548 Y116.803
;MESH:NONMESH
G0 F600 X116.548 Y116.803 Z11.7
G0 F15000 X116.348 Y116.803
;TIME_ELAPSED:233.435314
;LAYER:38
;TYPE:WALL-OUTER
;MESH:TestWand.stl
G1 F400.3 X116.818 Y116.803 E33.56434
G1 X116.818 Y97.568 E33.98948
G1 X116.818 Y97.333 E33.99467
G1 X116.348 Y97.333 E34.00506
G1 X116.348 Y116.803 E34.43539
G0 F15000 X116.548 Y116.803
;MESH:NONMESH
G0 F600 X116.548 Y116.803 Z12
G0 F15000 X116.348 Y116.803
;TIME_ELAPSED:239.550592
;LAYER:39
;TYPE:WALL-OUTER
;MESH:TestWand.stl
G1 F400.3 X116.818 Y116.803 E34.44578
G1 X116.818 Y97.568 E34.87092
G1 X116.818 Y97.333 E34.87612
G1 X116.348 Y97.333 E34.8865
G1 X116.348 Y116.803 E35.31684
G0 F15000 X116.548 Y116.803
;MESH:NONMESH
G0 F600 X116.548 Y116.803 Z12.3
G0 F15000 X116.348 Y116.803
;TIME_ELAPSED:245.665870
;LAYER:40
;TYPE:WALL-OUTER
;MESH:TestWand.stl
G1 F400.3 X116.818 Y116.803 E35.32723
G1 X116.818 Y116.568 E35.33242
G1 X116.818 Y97.333 E35.75756
G1 X116.348 Y97.333 E35.76795
G1 X116.348 Y116.803 E36.19828
G0 F15000 X116.548 Y116.803
;MESH:NONMESH
G0 F600 X116.548 Y116.803 Z12.6
G0 F15000 X116.348 Y116.803
;TIME_ELAPSED:251.781148
;LAYER:41
;TYPE:WALL-OUTER
;MESH:TestWand.stl
G1 F400.3 X116.818 Y116.803 E36.20867
G1 X116.818 Y97.568 E36.63381
G1 X116.818 Y97.333 E36.639
G1 X116.348 Y97.333 E36.64939
G1 X116.348 Y116.803 E37.07973
G0 F15000 X116.548 Y116.803
;MESH:NONMESH
G0 F600 X116.548 Y116.803 Z12.9
G0 F15000 X116.348 Y116.803
;TIME_ELAPSED:257.896425
;LAYER:42
;TYPE:WALL-OUTER
;MESH:TestWand.stl
G1 F400.3 X116.818 Y116.803 E37.09011
G1 X116.818 Y97.568 E37.51525
G1 X116.818 Y97.333 E37.52045
G1 X116.348 Y97.333 E37.53084
G1 X116.348 Y116.803 E37.96117
G0 F15000 X116.548 Y116.803
;MESH:NONMESH
G0 F600 X116.548 Y116.803 Z13.2
G0 F15000 X116.348 Y116.803
;TIME_ELAPSED:264.011703
;LAYER:43
;TYPE:WALL-OUTER
;MESH:TestWand.stl
G1 F400.3 X116.818 Y116.803 E37.97156
G1 X116.818 Y97.568 E38.3967
G1 X116.818 Y97.333 E38.40189
G1 X116.348 Y97.333 E38.41228
G1 X116.348 Y116.803 E38.84261
G0 F15000 X116.548 Y116.803
;MESH:NONMESH
G0 F600 X116.548 Y116.803 Z13.5
G0 F15000 X116.348 Y116.803
;TIME_ELAPSED:270.126981
;LAYER:44
;TYPE:WALL-OUTER
;MESH:TestWand.stl
G1 F400.3 X116.818 Y116.803 E38.853
G1 X116.818 Y97.568 E39.27814
G1 X116.818 Y97.333 E39.28334
G1 X116.348 Y97.333 E39.29372
G1 X116.348 Y116.803 E39.72406
