;START_OF_HEADER
;HEADER_VERSION:0.1
;FLAVOR:Griffin
;GENERATOR.NAME:Cura_SteamEngine
;GENERATOR.VERSION:main
;GENERATOR.BUILD_DATE:2022-07-19
;TARGET_MACHINE.NAME:Ultimaker 3
;EXTRUDER_TRAIN.0.INITIAL_TEMPERATURE:205
;EXTRUDER_TRAIN.0.MATERIAL.VOLUME_USED:391
;EXTRUDER_TRAIN.0.MATERIAL.GUID:506c9f0d-e3aa-4bd4-b2d2-23e2425b1aa9
;EXTRUDER_TRAIN.0.NOZZLE.DIAMETER:0.4
;EXTRUDER_TRAIN.0.NOZZLE.NAME:AA 0.4
;BUILD_PLATE.TYPE:glass
;BUILD_PLATE.INITIAL_TEMPERATURE:65
;PRINT.TIME:1268
;PRINT.GROUPS:1
;PRINT.SIZE.MIN.X:116.333
;PRINT.SIZE.MIN.Y:97.318
;PRINT.SIZE.MIN.Z:0.2
;PRINT.SIZE.MAX.X:116.833
;PRINT.SIZE.MAX.Y:116.818
;PRINT.SIZE.MAX.Z:20
;END_OF_HEADER
;Generated with Cura_SteamEngine main
T0
M82 ;absolute extrusion mode

G92 E0
M109 S205
G280 S1
G0 Z20.001
G1 F1500 E-6.5
;LAYER_COUNT:199
;LAYER:0
M107
M204 S2000
M205 X20 Y20
;MESH:TestWand.stl
G0 F3750 X116.333 Y116.818 Z0.2
M104 S200
;TYPE:WALL-OUTER
G1 F1500 E0
G1 F972.6 X116.833 Y116.818 E0.00784
G1 X116.833 Y97.318 E0.31351
G1 X116.333 Y97.318 E0.32135
G1 X116.333 Y97.568 E0.32527
G1 X116.333 Y116.818 E0.62702
M204 S1214
G0 F3750 X116.533 Y116.818
;MESH:NONMESH
G0 F600 X116.533 Y116.818 Z0.3
G0 F3750 X116.338 Y116.813
;TIME_ELAPSED:7.127434
;LAYER:1
M140 S60
M106 S85
;TYPE:WALL-OUTER
;MESH:TestWand.stl
G1 F382.8 X116.828 Y116.813 E0.63078
G1 X116.828 Y97.568 E0.7786
G1 X116.828 Y97.323 E0.78048
G1 X116.338 Y97.323 E0.78425
G1 X116.338 Y116.813 E0.93395
M204 S429
G0 F9375 X116.538 Y116.813
;MESH:NONMESH
G0 F600 X116.538 Y116.813 Z0.4
G0 F9375 X116.338 Y116.813
;TIME_ELAPSED:13.498464
;LAYER:2
M106 S170
;TYPE:WALL-OUTER
;MESH:TestWand.stl
G1 F382.8 X116.828 Y116.813 E0.93771
G1 X116.828 Y97.568 E1.08553
G1 X116.828 Y97.323 E1.08742
G1 X116.338 Y97.323 E1.09118
G1 X116.338 Y116.813 E1.24088
G0 F15000 X116.538 Y116.813
;MESH:NONMESH
G0 F600 X116.538 Y116.813 Z0.5
G0 F15000 X116.338 Y116.813
;TIME_ELAPSED:19.870658
;LAYER:3
M106 S255
;TYPE:WALL-OUTER
;MESH:TestWand.stl
G1 F382.8 X116.828 Y116.813 E1.24465
G1 X116.828 Y97.568 E1.39247
G1 X116.828 Y97.323 E1.39435
G1 X116.338 Y97.323 E1.39811
G1 X116.338 Y116.813 E1.54781
G0 F15000 X116.538 Y116.813
;MESH:NONMESH
G0 F600 X116.538 Y116.813 Z0.6
G0 F15000 X116.338 Y116.813
;TIME_ELAPSED:26.242852
;LAYER:4
;TYPE:WALL-OUTER
;MESH:TestWand.stl
G1 F382.8 X116.828 Y116.813 E1.55158
G1 X116.828 Y97.568 E1.6994
G1 X116.828 Y97.323 E1.70128
G1 X116.338 Y97.323 E1.70504
G1 X116.338 Y116.813 E1.85475
G0 F15000 X116.538 Y116.813
;MESH:NONMESH
G0 F600 X116.538 Y116.813 Z0.7
G0 F15000 X116.338 Y116.813
;TIME_ELAPSED:32.615045
;LAYER:5
;TYPE:WALL-OUTER
;MESH:TestWand.stl
G1 F382.8 X116.828 Y116.813 E1.85851
G1 X116.828 Y97.568 E2.00633
G1 X116.828 Y97.323 E2.00821
G1 X116.338 Y97.323 E2.01198
G1 X116.338 Y116.813 E2.16168
G0 F15000 X116.538 Y116.813
;MESH:NONMESH
G0 F600 X116.538 Y116.813 Z0.8
G0 F15000 X116.338 Y116.813
;TIME_ELAPSED:38.987239
;LAYER:6
;TYPE:WALL-OUTER
;MESH:TestWand.stl
G1 F382.8 X116.828 Y116.813 E2.16544
G1 X116.828 Y97.568 E2.31326
G1 X116.828 Y97.323 E2.31514
G1 X116.338 Y97.323 E2.31891
G1 X116.338 Y116.813 E2.46861
G0 F15000 X116.538 Y116.813
;MESH:NONMESH
G0 F600 X116.538 Y116.813 Z0.9
G0 F15000 X116.338 Y116.813
;TIME_ELAPSED:45.359433
;LAYER:7
;TYPE:WALL-OUTER
;MESH:TestWand.stl
G1 F382.8 X116.828 Y116.813 E2.47237
G1 X116.828 Y97.568 E2.62019
G1 X116.828 Y97.323 E2.62208
G1 X116.338 Y97.323 E2.62584
G1 X116.338 Y116.813 E2.77554
G0 F15000 X116.538 Y116.813
;MESH:NONMESH
G0 F600 X116.538 Y116.813 Z1
G0 F15000 X116.338 Y116.813
;TIME_ELAPSED:51.731627
;LAYER:8
;TYPE:WALL-OUTER
;MESH:TestWand.stl
G1 F382.8 X116.828 Y116.813 E2.77931
G1 X116.828 Y97.568 E2.92713
G1 X116.828 Y97.323 E2.92901
G1 X116.338 Y97.323 E2.93277
G1 X116.338 Y116.813 E3.08247
G0 F15000 X116.538 Y116.813
;MESH:NONMESH
G0 F600 X116.538 Y116.813 Z1.1
G0 F15000 X116.338 Y116.813
;TIME_ELAPSED:58.103821
;LAYER:9
;TYPE:WALL-OUTER
;MESH:TestWand.stl
G1 F382.8 X116.828 Y116.813 E3.08624
G1 X116.828 Y97.323 E3.23594
G1 X116.338 Y97.323 E3.2397
G1 X116.338 Y116.813 E3.38941
G0 F15000 X116.538 Y116.813
;MESH:NONMESH
G0 F600 X116.538 Y116.813 Z1.2
G0 F15000 X116.338 Y116.813
;TIME_ELAPSED:64.476015
;LAYER:10
;TYPE:WALL-OUTER
;MESH:TestWand.stl
G1 F382.8 X116.828 Y116.813 E3.39317
G1 X116.828 Y97.568 E3.54099
G1 X116.828 Y97.323 E3.54287
G1 X116.338 Y97.323 E3.54663
G1 X116.338 Y116.813 E3.69634
G0 F15000 X116.538 Y116.813
;MESH:NONMESH
G0 F600 X116.538 Y116.813 Z1.3
G0 F15000 X116.338 Y116.813
;TIME_ELAPSED:70.848209
;LAYER:11
;TYPE:WALL-OUTER
;MESH:TestWand.stl
G1 F382.8 X116.828 Y116.813 E3.7001
G1 X116.828 Y116.568 E3.70198
G1 X116.828 Y97.323 E3.8498
G1 X116.338 Y97.323 E3.85357
G1 X116.338 Y116.813 E4.00327
G0 F15000 X116.538 Y116.813
;MESH:NONMESH
G0 F600 X116.538 Y116.813 Z1.4
G0 F15000 X116.338 Y116.813
;TIME_ELAPSED:77.220402
;LAYER:12
;TYPE:WALL-OUTER
;MESH:TestWand.stl
G1 F382.8 X116.828 Y116.813 E4.00703
G1 X116.828 Y97.568 E4.15485
G1 X116.828 Y97.323 E4.15673
G1 X116.338 Y97.323 E4.1605
G1 X116.338 Y116.813 E4.3102
G0 F15000 X116.538 Y116.813
;MESH:NONMESH
G0 F600 X116.538 Y116.813 Z1.5
G0 F15000 X116.338 Y116.813
;TIME_ELAPSED:83.592596
;LAYER:13
;TYPE:WALL-OUTER
;MESH:TestWand.stl
G1 F382.8 X116.828 Y116.813 E4.31396
G1 X116.828 Y97.568 E4.46178
G1 X116.828 Y97.323 E4.46367
G1 X116.338 Y97.323 E4.46743
G1 X116.338 Y116.813 E4.61713
G0 F15000 X116.538 Y116.813
;MESH:NONMESH
G0 F600 X116.538 Y116.813 Z1.6
G0 F15000 X116.338 Y116.813
;TIME_ELAPSED:89.964790
;LAYER:14
;TYPE:WALL-OUTER
;MESH:TestWand.stl
G1 F382.8 X116.828 Y116.813 E4.6209
G1 X116.828 Y97.568 E4.76872
G1 X116.828 Y97.323 E4.7706
G1 X116.338 Y97.323 E4.77436
G1 X116.338 Y116.813 E4.92406
G0 F15000 X116.538 Y116.813
;MESH:NONMESH
G0 F600 X116.538 Y116.813 Z1.7
G0 F15000 X116.338 Y116.813
;TIME_ELAPSED:96.336984
;LAYER:15
;TYPE:WALL-OUTER
;MESH:TestWand.stl
G1 F382.8 X116.828 Y116.813 E4.92783
G1 X116.828 Y97.568 E5.07565
G1 X116.828 Y97.323 E5.07753
G1 X116.338 Y97.323 E5.08129
G1 X116.338 Y116.813 E5.231
G0 F15000 X116.538 Y116.813
;MESH:NONMESH
G0 F600 X116.538 Y116.813 Z1.8
G0 F15000 X116.338 Y116.813
;TIME_ELAPSED:102.709178
;LAYER:16
;TYPE:WALL-OUTER
;MESH:TestWand.stl
G1 F382.8 X116.828 Y116.813 E5.23476
G1 X116.828 Y97.323 E5.38446
G1 X116.338 Y97.323 E5.38823
G1 X116.338 Y116.813 E5.53793
G0 F15000 X116.538 Y116.813
;MESH:NONMESH
G0 F600 X116.538 Y116.813 Z1.9
G0 F15000 X116.338 Y116.813
;TIME_ELAPSED:109.081372
;LAYER:17
;TYPE:WALL-OUTER
;MESH:TestWand.stl
G1 F382.8 X116.828 Y116.813 E5.54169
G1 X116.828 Y97.568 E5.68951
G1 X116.828 Y97.323 E5.69139
G1 X116.338 Y97.323 E5.69516
G1 X116.338 Y116.813 E5.84486
G0 F15000 X116.538 Y116.813
;MESH:NONMESH
G0 F600 X116.538 Y116.813 Z2
G0 F15000 X116.338 Y116.813
;TIME_ELAPSED:115.453566
;LAYER:18
;TYPE:WALL-OUTER
;MESH:TestWand.stl
G1 F382.8 X116.828 Y116.813 E5.84862
G1 X116.828 Y97.323 E5.99833
G1 X116.338 Y97.323 E6.00209
G1 X116.338 Y116.813 E6.15179
G0 F15000 X116.538 Y116.813
;MESH:NONMESH
G0 F600 X116.538 Y116.813 Z2.1
G0 F15000 X116.338 Y116.813
;TIME_ELAPSED:121.825759
;LAYER:19
;TYPE:WALL-OUTER
;MESH:TestWand.stl
G1 F382.8 X116.828 Y116.813 E6.15556
G1 X116.828 Y97.568 E6.30338
G1 X116.828 Y97.323 E6.30526
G1 X116.338 Y97.323 E6.30902
G1 X116.338 Y116.813 E6.45872
G0 F15000 X116.538 Y116.813
;MESH:NONMESH
G0 F600 X116.538 Y116.813 Z2.2
G0 F15000 X116.338 Y116.813
;TIME_ELAPSED:128.197953
;LAYER:20
;TYPE:WALL-OUTER
;MESH:TestWand.stl
G1 F382.8 X116.828 Y116.813 E6.46249
G1 X116.828 Y97.568 E6.61031
G1 X116.828 Y97.323 E6.61219
G1 X116.338 Y97.323 E6.61595
G1 X116.338 Y116.813 E6.76566
G0 F15000 X116.538 Y116.813
;MESH:NONMESH
G0 F600 X116.538 Y116.813 Z2.3
G0 F15000 X116.338 Y116.813
;TIME_ELAPSED:134.570147
;LAYER:21
;TYPE:WALL-OUTER
;MESH:TestWand.stl
G1 F382.8 X116.828 Y116.813 E6.76942
G1 X116.828 Y97.323 E6.91912
G1 X116.338 Y97.323 E6.92289
G1 X116.338 Y116.813 E7.07259
G0 F15000 X116.538 Y116.813
;MESH:NONMESH
G0 F600 X116.538 Y116.813 Z2.4
G0 F15000 X116.338 Y116.813
;TIME_ELAPSED:140.942341
;LAYER:22
;TYPE:WALL-OUTER
;MESH:TestWand.stl
G1 F382.8 X116.828 Y116.813 E7.07635
G1 X116.828 Y116.568 E7.07823
G1 X116.828 Y97.323 E7.22605
G1 X116.338 Y97.323 E7.22982
G1 X116.338 Y116.813 E7.37952
G0 F15000 X116.538 Y116.813
;MESH:NONMESH
G0 F600 X116.538 Y116.813 Z2.5
G0 F15000 X116.338 Y116.813
;TIME_ELAPSED:147.314535
;LAYER:23
;TYPE:WALL-OUTER
;MESH:TestWand.stl
G1 F382.8 X116.828 Y116.813 E7.38328
G1 X116.828 Y97.568 E7.5311
G1 X116.828 Y97.323 E7.53299
G1 X116.338 Y97.323 E7.53675
G1 X116.338 Y116.813 E7.68645
G0 F15000 X116.538 Y116.813
;MESH:NONMESH
G0 F600 X116.538 Y116.813 Z2.6
G0 F15000 X116.338 Y116.813
;TIME_ELAPSED:153.686729
;LAYER:24
;TYPE:WALL-OUTER
;MESH:TestWand.stl
G1 F382.8 X116.828 Y116.813 E7.69021
G1 X116.828 Y97.323 E7.83992
G1 X116.338 Y97.323 E7.84368
G1 X116.338 Y97.568 E7.84556
G1 X116.338 Y116.813 E7.99338
G0 F15000 X116.538 Y116.813
;MESH:NONMESH
G0 F600 X116.538 Y116.813 Z2.7
G0 F15000 X116.338 Y116.813
;TIME_ELAPSED:160.058923
;LAYER:25
;TYPE:WALL-OUTER
;MESH:TestWand.stl
G1 F382.8 X116.828 Y116.813 E7.99715
G1 X116.828 Y97.568 E8.14497
G1 X116.828 Y97.323 E8.14685
G1 X116.338 Y97.323 E8.15061
G1 X116.338 Y116.813 E8.30031
G0 F15000 X116.538 Y116.813
;MESH:NONMESH
G0 F600 X116.538 Y116.813 Z2.8
G0 F15000 X116.338 Y116.813
;TIME_ELAPSED:166.431116
;LAYER:26
;TYPE:WALL-OUTER
;MESH:TestWand.stl
G1 F382.8 X116.828 Y116.813 E8.30408
G1 X116.828 Y97.568 E8.4519
G1 X116.828 Y97.323 E8.45378
G1 X116.338 Y97.323 E8.45754
G1 X116.338 Y116.813 E8.60725
G0 F15000 X116.538 Y116.813
;MESH:NONMESH
G0 F600 X116.538 Y116.813 Z2.9
G0 F15000 X116.338 Y116.813
;TIME_ELAPSED:172.803310
;LAYER:27
;TYPE:WALL-OUTER
;MESH:TestWand.stl
G1 F382.8 X116.828 Y116.813 E8.61101
G1 X116.828 Y97.568 E8.75883
G1 X116.828 Y97.323 E8.76071
G1 X116.338 Y97.323 E8.76448
G1 X116.338 Y116.813 E8.91418
G0 F15000 X116.538 Y116.813
;MESH:NONMESH
G0 F600 X116.538 Y116.813 Z3
G0 F15000 X116.338 Y116.813
;TIME_ELAPSED:179.175504
;LAYER:28
;TYPE:WALL-OUTER
;MESH:TestWand.stl
G1 F382.8 X116.828 Y116.813 E8.91794
G1 X116.828 Y97.568 E9.06576
G1 X116.828 Y97.323 E9.06764
G1 X116.338 Y97.323 E9.07141
G1 X116.338 Y116.813 E9.22111
G0 F15000 X116.538 Y116.813
;MESH:NONMESH
G0 F600 X116.538 Y116.813 Z3.1
G0 F15000 X116.338 Y116.813
;TIME_ELAPSED:185.547698
;LAYER:29
;TYPE:WALL-OUTER
;MESH:TestWand.stl
G1 F382.8 X116.828 Y116.813 E9.22487
G1 X116.828 Y97.568 E9.37269
G1 X116.828 Y97.323 E9.37458
G1 X116.338 Y97.323 E9.37834
G1 X116.338 Y116.813 E9.52804
G0 F15000 X116.538 Y116.813
;MESH:NONMESH
G0 F600 X116.538 Y116.813 Z3.2
G0 F15000 X116.338 Y116.813
;TIME_ELAPSED:191.919892
;LAYER:30
;TYPE:WALL-OUTER
;MESH:TestWand.stl
G1 F382.8 X116.828 Y116.813 E9.53181
G1 X116.828 Y97.568 E9.67963
G1 X116.828 Y97.323 E9.68151
G1 X116.338 Y97.323 E9.68527
G1 X116.338 Y116.813 E9.83497
G0 F15000 X116.538 Y116.813
;MESH:NONMESH
G0 F600 X116.538 Y116.813 Z3.3
G0 F15000 X116.338 Y116.813
;TIME_ELAPSED:198.292086
;LAYER:31
;TYPE:WALL-OUTER
;MESH:TestWand.stl
G1 F382.8 X116.828 Y116.813 E9.83874
G1 X116.828 Y97.568 E9.98656
G1 X116.828 Y97.323 E9.98844
G1 X116.338 Y97.323 E9.9922
G1 X116.338 Y116.813 E10.14191
G0 F15000 X116.538 Y116.813
;MESH:NONMESH
G0 F600 X116.538 Y116.813 Z3.4
G0 F15000 X116.338 Y116.813
;TIME_ELAPSED:204.664280
;LAYER:32
;TYPE:WALL-OUTER
;MESH:TestWand.stl
G1 F382.8 X116.828 Y116.813 E10.14567
G1 X116.828 Y97.568 E10.29349
G1 X116.828 Y97.323 E10.29537
G1 X116.338 Y97.323 E10.29914
G1 X116.338 Y116.813 E10.44884
G0 F15000 X116.538 Y116.813
;MESH:NONMESH
G0 F600 X116.538 Y116.813 Z3.5
G0 F15000 X116.338 Y116.813
;TIME_ELAPSED:211.036474
;LAYER:33
;TYPE:WALL-OUTER
;MESH:TestWand.stl
G1 F382.8 X116.828 Y116.813 E10.4526
G1 X116.828 Y116.568 E10.45448
G1 X116.828 Y97.323 E10.6023
G1 X116.338 Y97.323 E10.60607
G1 X116.338 Y116.813 E10.75577
G0 F15000 X116.538 Y116.813
;MESH:NONMESH
G0 F600 X116.538 Y116.813 Z3.6
G0 F15000 X116.338 Y116.813
;TIME_ELAPSED:217.408668
;LAYER:34
;TYPE:WALL-OUTER
;MESH:TestWand.stl
G1 F382.8 X116.828 Y116.813 E10.75953
G1 X116.828 Y97.568 E10.90735
G1 X116.828 Y97.323 E10.90924
G1 X116.338 Y97.323 E10.913
G1 X116.338 Y116.813 E11.0627
G0 F15000 X116.538 Y116.813
;MESH:NONMESH
G0 F600 X116.538 Y116.813 Z3.7
G0 F15000 X116.338 Y116.813
;TIME_ELAPSED:223.780861
;LAYER:35
;TYPE:WALL-OUTER
;MESH:TestWand.stl
G1 F382.8 X116.828 Y116.813 E11.06647
G1 X116.828 Y97.568 E11.21429
G1 X116.828 Y97.323 E11.21617
G1 X116.338 Y97.323 E11.21993
G1 X116.338 Y116.813 E11.36963
G0 F15000 X116.538 Y116.813
;MESH:NONMESH
G0 F600 X116.538 Y116.813 Z3.8
G0 F15000 X116.338 Y116.813
;TIME_ELAPSED:230.153055
;LAYER:36
;TYPE:WALL-OUTER
;MESH:TestWand.stl
G1 F382.8 X116.828 Y116.813 E11.3734
G1 X116.828 Y97.568 E11.52122
G1 X116.828 Y97.323 E11.5231
G1 X116.338 Y97.323 E11.52686
G1 X116.338 Y116.813 E11.67657
G0 F15000 X116.538 Y116.813
;MESH:NONMESH
G0 F600 X116.538 Y116.813 Z3.9
G0 F15000 X116.338 Y116.813
;TIME_ELAPSED:236.525249
;LAYER:37
;TYPE:WALL-OUTER
;MESH:TestWand.stl
G1 F382.8 X116.828 Y116.813 E11.68033
G1 X116.828 Y97.568 E11.82815
G1 X116.828 Y97.323 E11.83003
G1 X116.338 Y97.323 E11.83379
G1 X116.338 Y116.813 E11.9835
G0 F15000 X116.538 Y116.813
;MESH:NONMESH
G0 F600 X116.538 Y116.813 Z4
G0 F15000 X116.338 Y116.813
;TIME_ELAPSED:242.897443
;LAYER:38
;TYPE:WALL-OUTER
;MESH:TestWand.stl
G1 F382.8 X116.828 Y116.813 E11.98726
G1 X116.828 Y97.568 E12.13508
G1 X116.828 Y97.323 E12.13696
G1 X116.338 Y97.323 E12.14073
G1 X116.338 Y116.813 E12.29043
G0 F15000 X116.538 Y116.813
;MESH:NONMESH
G0 F600 X116.538 Y116.813 Z4.1
G0 F15000 X116.338 Y116.813
;TIME_ELAPSED:249.269637
;LAYER:39
;TYPE:WALL-OUTER
;MESH:TestWand.stl
G1 F382.8 X116.828 Y116.813 E12.29419
G1 X116.828 Y97.568 E12.44201
G1 X116.828 Y97.323 E12.44389
G1 X116.338 Y97.323 E12.44766
G1 X116.338 Y116.813 E12.59736
G0 F15000 X116.538 Y116.813
;MESH:NONMESH
G0 F600 X116.538 Y116.813 Z4.2
G0 F15000 X116.338 Y116.813
;TIME_ELAPSED:255.641831
;LAYER:40
;TYPE:WALL-OUTER
;MESH:TestWand.stl
G1 F382.8 X116.828 Y116.813 E12.60112
G1 X116.828 Y97.568 E12.74894
G1 X116.828 Y97.323 E12.75083
G1 X116.338 Y97.323 E12.75459
G1 X116.338 Y116.813 E12.90429
G0 F15000 X116.538 Y116.813
;MESH:NONMESH
G0 F600 X116.538 Y116.813 Z4.3
G0 F15000 X116.338 Y116.813
;TIME_ELAPSED:262.014025
;LAYER:41
;TYPE:WALL-OUTER
;MESH:TestWand.stl
G1 F382.8 X116.828 Y116.813 E12.90806
G1 X116.828 Y97.568 E13.05588
G1 X116.828 Y97.323 E13.05776
G1 X116.338 Y97.323 E13.06152
G1 X116.338 Y116.813 E13.21122
G0 F15000 X116.538 Y116.813
;MESH:NONMESH
G0 F600 X116.538 Y116.813 Z4.4
G0 F15000 X116.338 Y116.813
;TIME_ELAPSED:268.386219
;LAYER:42
;TYPE:WALL-OUTER
;MESH:TestWand.stl
G1 F382.8 X116.828 Y116.813 E13.21499
G1 X116.828 Y97.568 E13.36281
G1 X116.828 Y97.323 E13.36469
G1 X116.338 Y97.323 E13.36845
G1 X116.338 Y116.813 E13.51816
G0 F15000 X116.538 Y116.813
;MESH:NONMESH
G0 F600 X116.538 Y116.813 Z4.5
G0 F15000 X116.338 Y116.813
;TIME_ELAPSED:274.758413
;LAYER:43
;TYPE:WALL-OUTER
;MESH:TestWand.stl
G1 F382.8 X116.828 Y116.813 E13.52192
G1 X116.828 Y116.568 E13.5238
G1 X116.828 Y97.323 E13.67162
G1 X116.338 Y97.323 E13.67539
G1 X116.338 Y116.813 E13.82509
G0 F15000 X116.538 Y116.813
;MESH:NONMESH
G0 F600 X116.538 Y116.813 Z4.6
G0 F15000 X116.338 Y116.813
;TIME_ELAPSED:281.130606
;LAYER:44
;TYPE:WALL-OUTER
;MESH:TestWand.stl
G1 F382.8 X116.828 Y116.813 E13.82885
G1 X116.828 Y97.568 E13.97667
G1 X116.828 Y97.323 E13.97855
G1 X116.338 Y97.323 E13.98232
G1 X116.338 Y116.813 E14.13202
